!!!!SEGMENT: pl-sa--17-a-i-17--001-002_janicki-mikolaj--rondo-z-krakowiaka-g-moll.krn
!!!id: 18xx:348
!!!COM: Janicki, Mikołaj
!!!COM-rism: pe41009558
!!!CDT: <1805->1844
!!!CNT: Polish
!!!OTL: Rondo z Krakowiaka – g-moll
!!!PDT:
!!!SMS-siglum: PL-SA
!!!SMS-shelfmark: 17/A I 17
!!!NIFC-rismID: 1001065729
!!!URL-scan: http://bc.bdsandomierz.pl/dlibra/publication/1283/edition/1251/content
!!!ONB-nifc: UWAGA: 3 utwory: Allegro, utwór w g-moll, utwór w G-dur
!!!SMS-variant:
!!!SMS-altvar:
**kern	**kern	**dynam
*part1	*part1	*part1
*staff2	*staff1	*
*I"Piano	*	*
*I'Pno.	*	*
*clefF4	*clefG2	*
*k[b-e-]	*k[b-e-]	*
*g:	*g:	*
*M2/4	*M2/4	*
=1	=1	=1
.	16qqdd/LL	.
.	16qqgg/	.
!	!LO:SIC:o=:v:niekonsekwentny zapis caud	!
!	!LO:SIC:o=:v:brak metrum (zostaje z poprzedniej części)	!
.	16qqbb-/JJ	fp
8G\L 8B-\	8.ddd\L	.
8d\J	.	.
.	16ccc\Jk	.
!LO:SIC:o=:v:znak powtórzenia grupy	!	!
*rep	*	*
8G\L 8B-\	16bb-\LL	.
.	16aa\	.
8d\J	16gg\	.
.	16ff#X\JJ	.
*Xrep	*	*
=2	=2	=2
8D\L 8A\	16ee-\LL	.
.	16dd\	.
8c\J	16cc\	.
.	16b-\JJ	.
!LO:SIC:o=:v:znak powtórzenia grupy	!	!
*rep	*	*
8D\L 8A\	16a/LL	.
.	16g/	.
8c\J	16f#X/	.
.	16a/JJ	.
*Xrep	*	*
=3	=3	=3
8G\L 8B-\	16g\LL	.
.	16a\	.
8d\J	16b-\	.
.	16cc\JJ	.
!LO:SIC:o=:v:znak powtórzenia grupy	!	!
*rep	*	*
8G\L 8B-\	16dd\LL	.
.	16een\	.
8d\J	16ff#X\	.
.	16gg\JJ	.
*Xrep	*	*
=4	=4	=4
8A\L 8c\	16ff#X\LL	.
.	16dd\	.
8d\J	16aa\	.
.	16ee-X\JJ	.
8F#X\L 8c\	16dd\LL	.
.	16cc\	.
8d\J	16b-\	.
.	16a\JJ	.
=5	=5	=5
.	16qqdd/LL	.
.	16qqgg/	.
.	16qqbb-/JJ	.
8G\L 8B-\	8.ddd\L	fp
8d\J	.	.
.	16ccc\Jk	.
!LO:SIC:o=:v:znak powtórzenia grupy	!	!
*rep	*	*
8G\L 8B-\	16bb-\LL	.
.	16aa\	.
8d\J	16gg\	.
.	16ff#X\JJ	.
*Xrep	*	*
!!LO:LB:g=original
=6	=6	=6
8D\L 8A\	16ee-\LL	.
.	16dd\	.
8c\J	16cc\	.
.	16b-\JJ	.
!LO:SIC:o=:v:znak powtórzenia grupy	!	!
*rep	*	*
8D\L 8A\	16a/LL	.
.	16g/	.
8c\J	16f#X/	.
.	16a/JJ	.
*Xrep	*	*
=7	=7	=7
8G\L 8B-\	16g/LL	.
.	16a/	.
8d\J	16b-/	.
.	16cc/JJ	.
8F#X\L 8c\	16dd/LL	.
.	16ee-/	.
8d\J	16cc/	.
.	16a/JJ	.
=8	=8	=8
8G\L 8B-\	16g\LL	.
.	16b-\	.
8d\J	16dd\	.
.	16gg\JJ	.
4G\ 4B-\	4g/	.
=9	=9	=9
8c\L 8e-\	16ffn\LL	.
.	16eee-\	.
8Fn\J	16ccc\	<
.	16aa\JJ	.
!LO:SIC:o=:v:znak powtórzenia grupy	!	!
*rep	*	*
8c\L 8e-\	16ff\LL	.
.	16ee-\	.
8F\J	16cc\	.
.	16a\JJ	.
*Xrep	*	*
=10	=10	=10
!	!LO:SIC:o=:v:znak powtórzenia taktu	!
*rep	*	*
8c\L 8e-\	16f'/LL	.
.	(16f/	.
8F\J	16g/	.
.	16f/JJ)	.
8c\L 8e-\	16a-X/LL	.
.	16f/	.
8F\J	16an/	.
.	16f/JJ	.
*Xrep	*	*
=11	=11	=11
!LO:SIC:o=:v:mixed beam	!	!
8BB-/L	16d/LL 16b-/	.
.	16f/	.
8B-\J	16d/ 16b-/	.
.	16f/JJ	.
!LO:SIC:o=:v:mixed beam	!	!
8BB-/L	16b-/LL 16dd/	.
.	16f/	.
8B-\J	16cc/ 16ee-/	.
.	16f/JJ	.
!!LO:LB:g=original
=12	=12	=12
!LO:SIC:o=:v:mixed beam	!	!
!	!LO:SIC:o=:v:znak powtórzenia taktu	!
*rep	*	*
8BB-/L	16dd/LL 16ff/	.
.	16f/	.
!	!LO:SIC:o:s=:v:=een	!
8B-\J	16cc#X/ 16ee-X/	.
.	16f/JJ	.
!LO:SIC:o=:v:mixed beam	!	!
8BB-/L	16ee-/LL 16gg/	.
.	16f/	.
8B-\J	16dd/ 16ff/	.
.	16f/JJ	.
*Xrep	*	*
=13	=13	=13
8c\L 8e-\	16ff\LL	.
.	16eee-\	.
8F\J	16ccc\	.
.	16aa\JJ	.
!LO:SIC:o=:v:znak powtórzenia grupy	!	!
*rep	*	*
8c\L 8e-\	16ff\LL	.
.	16ee-\	.
8F\J	16cc\	.
.	16a\JJ	.
*Xrep	*	*
=14	=14	=14
!	!LO:SIC:o=:v:znak powtórzenia taktu	!
*rep	*	*
8c\L 8e-\	16f/LL	.
.	16f/	.
8F\J	16g/	.
.	16f/JJ	.
8c\L 8e-\	16a-X/LL	.
.	16f/	.
8F\J	16an/	.
.	16f/JJ	.
*Xrep	*	*
=15	=15	=15
8B-\L 8d\	16b-/LL	<
.	16f/	.
8F\J	16a/ 16cc/	.
.	16f/JJ	.
!LO:SIC:o=:v:znak powtórzenia grupy	!	!
*rep	*	*
8B-\L 8d\	16b-\LL 16dd\	.
.	16f\	.
8F\J	16cc\ 16ee-\	.
.	16f\JJ	[
*Xrep	*	*
=16	=16	=16
!	!LO:SIC:o=:v:znak powtórzenia taktu	!
*rep	*	*
8B-\L 8d\	16dd\LL 16ff\	.
.	16b-\	.
8F\J	16ff\ 16bb-\	.
.	16dd\JJ	.
8B-\L 8d\	16bb-\LL 16ddd\	.
.	16ff\	.
8F\J	16ddd\ 16fff\	.
.	16bb-\JJ	.
*Xrep	*	*
!!LO:LB:g=original
=17	=17	=17
!	!LO:SIC:o=:v:f=f.&colon;global	!
.	8qgg/	f
8EE-/L	16ggg\LL	.
.	(16eee-\	.
8E-/J	16bb-\	.
.	16gg\JJ)	.
!LO:SIC:o=:v:znak powtórzenia grupy	!	!
*rep	*	*
8EE-/L	16ee-\LL	.
.	(16b-\	.
8E-/J	16g\	.
.	16e-\JJ)	.
*Xrep	*	*
=18	=18	=18
8DD/L	(16B-/LL	.
.	16d/	.
8D/J	16f/	.
.	16b-/JJ)	.
!LO:SIC:o=:v:znak powtórzenia grupy	!	!
*rep	*	*
8DD/L	(16dd\LL	.
.	16ff\	.
8D/J	16bb-\	.
.	16ddd\JJ)	.
*Xrep	*	*
=19	=19	=19
!	!LO:TX:b:i:t=dol.	!
16FF/LL	8ddd\L 8fff\	.
16F/	.	.
16En/	8ddd\J 8fff\	.
16F/JJ	.	.
!LO:SIC:o=:v:mixed beam	!	!
8FF/L	8.ccc\L 8.eee-\	.
8F\J	.	.
.	16aa\Jk 16ccc\	.
=20	=20	=20
8BB-/L 8D/	(8ccc\L 8eee-\	.
8F/J	8bb-\J) 8ddd\	.
!LO:SIC:o=:v:znak powtórzenia grupy	!	!
*rep	*	*
8BB-/L 8D/	4bb-\ 4ddd\	.
8F/J	.	.
*Xrep	*	*
=21	=21	=21
!LO:SIC:o=:v:mixed beam	!	!
.	8qgg/	f
8EE-/L	(16ggg\LL	.
.	16eee-\	.
8E-\J	16bb-\	.
.	16gg\JJ)	.
!LO:SIC:o=:v:mixed beam	!	!
!LO:SIC:o=:v:znak powtórzenia grupy	!	!
*rep	*	*
8EE-/L	16ee-\LL	.
.	(16b-\	.
8E-\J	16g\	.
.	16e-\JJ)	.
*Xrep	*	*
=22	=22	=22
!LO:SIC:o=:v:mixed beam	!	!
8DD/L	(16B-/LL	.
.	16d/	.
8D\J	16f/	.
.	16b-/JJ)	.
!LO:SIC:o=:v:mixed beam	!	!
!LO:SIC:o=:v:znak powtórzenia grupy	!	!
*rep	*	*
8DD/L	16dd\LL	.
.	16ff\	.
8D\J	16bb-\	.
.	16ddd\JJ	.
*Xrep	*	*
!!LO:LB:g=original
=23	=23	=23
8c\L 8e-\	16ff\LL	.
.	16fff\	.
8F\J	(16eeen\	.
.	16eee-X\JJ	.
!LO:SIC:o=:v:znak powtórzenia grupy	!	!
*rep	*	*
8c\L 8e-\	16ddd\LL	.
.	16ccc\	.
8F\J	16bb-\)	.
.	16aa\JJ	.
*Xrep	*	*
=24	=24	=24
.	8qddd/	.
8B-\L 8d\	16bb-\LL	.
.	(16aa\	.
8F\J	16bb-\	.
.	16ccc\JJ)	.
!LO:SIC:o=:v:znak powtórzenia grupy	!	!
*rep	*	*
8B-\L 8d\	(16ddd\LL	.
.	16bb-\	.
8F\J	16ff\)	.
.	16dd\JJ	.
*Xrep	*	*
=25	=25	=25
8c\L 8e-\	16ff\LL	.
.	(16fff\	.
8F\J	16eeen\	.
.	16eee-X\JJ	.
!LO:SIC:o=:v:znak powtórzenia grupy	!	!
*rep	*	*
8c\L 8e-\	16ddd\LL	.
.	16ccc\	.
8F\J	16bb-\)	.
.	16aa\JJ	.
*Xrep	*	*
=26	=26	=26
!LO:SIC:o=:v:mixed beam	!	!
.	8qccc/	f
8BB-/L	16.bb-\LL	.
.	32aa\K	.
8B-\J	16.bb-\	.
.	32ccc\JJk	.
!LO:SIC:o=:v:mixed beam	!	!
8AA/L	16.ddd\LL	.
.	32ccc\K	.
8A\J	16.bb-\	.
.	32aa\JJk	.
!!LO:LB:g=original
=27	=27	=27
!LO:SIC:o=:v:mixed beam	!	!
8GG/L	16.gg\LL	.
.	32ff#X\K	.
8G\J	16.gg\	.
.	32aa\JJk	.
!LO:SIC:o=:v:mixed beam	!	!
8FFn/L	16.bb-\LL	.
.	32aa\K	.
8Fn\J	16.gg\	.
.	32ffn\JJk	.
=28	=28	=28
!LO:SIC:o=:v:mixed beam	!	!
8EE-/L	16.ee-\LL	.
.	32dd\K	.
8E-\J	16.ee-\	.
.	32ff\JJk	.
!LO:SIC:o=:v:mixed beam	!	!
8DD/L	16.gg\LL	.
.	32ff\K	.
8D\J	16.ee-\	.
.	32dd\JJk	.
=29	=29	=29
8CC/L	16.cc\LL	.
.	32bn\K	.
8C/J	16.cc\	.
.	32dd\JJk	.
8BBB-X/L	16.ee-\LL	.
.	32dd\K	.
8BB-/J	16.cc\	.
!	!LO:SIC:s=:v:32b-	!
.	32b\JJk	.
=30	=30	=30
8AAA/L	16.a/LL	.
.	32g/K	.
8AA/J	16.a/	.
.	32b-/JJk	.
8GGG/L	16.cc\LL	.
.	32b-\K	.
8GG/J	16.a\	.
.	32g\JJk	.
!!LO:LB:g=original
=31	=31	=31
8FFF#X/L	16r	.
.	(16f#X/LL	.
!	!LO:SIC:s=:v:8FF#	!
8FF/J	16a/	.
.	16cc/JJ)	.
!LO:SIC:o=:v:znak powtórzenia grupy	!	!
*rep	*	*
8FFF#/L	16ee-\LL	.
.	(16ff#X\	.
!	!LO:SIC:s=:v:8FF#	!
8FF/J	16aa\	.
.	16ccc\JJ)	.
*Xrep	*	*
=32	=32	=32
8GGG/L	16r	.
.	16g\LL	.
8GG/J	(16b-\	.
.	16dd\JJ	.
!LO:SIC:o=:v:znak powtórzenia grupy	!	!
*rep	*	*
8GGG/L	16gg\LL	.
.	16bb-\)	.
8GG/J	16ddd\	.
.	16ggg\JJ	.
*Xrep	*	*
=33	=33	=33
8FFF#X/L	16r	.
.	16fff#X\LL	.
!	!LO:SIC:s=:v:8FF#	!
8FF/J	16eee-\	.
.	16ccc\JJ	.
!LO:SIC:o=:v:znak powtórzenia grupy	!	!
*rep	*	*
8FFF#/L	(16aa\LL	.
.	16ff#X\	.
!	!LO:SIC:s=:v:8FF#	!
8FF/J	16ee-\	.
.	16cc\JJ)	.
*Xrep	*	*
=34	=34	=34
8GGG/L	16r	.
.	16gg\LL	.
8GG/J	(16dd\	.
.	16b-\JJ	.
!LO:SIC:o=:v:znak powtórzenia grupy	!	!
*rep	*	*
8GGG/L	16g/LL	.
.	16d/)	.
8GG/J	16B-/	.
.	16G/JJ	.
*Xrep	*	*
!!LO:LB:g=original
=35	=35	=35
8CC#X\L	16r<	.
.	(>16En</LL	.
!	!LO:SIC:s=:v:8C#	!
8C\J	16G</	.
.	16B-</JJ	.
!LO:SIC:o=:v:znak powtórzenia grupy	!	!
*rep	*	*
8CC#\L	16c#X/LL	.
.	16en/	.
!	!LO:SIC:s=:v:8C#	!
8C\J	16g/)	.
.	16b-/JJ	.
*Xrep	*	*
=36	=36	=36
8DD/L	16r	.
.	(16d/LL	.
8D/J	16f#X/	.
.	16a/JJ	.
!LO:SIC:o=:v:znak powtórzenia grupy	!	!
*rep	*	*
8DD/L	16dd\LL	.
!	!LO:SIC:s=:v:16ff#	!
.	16ff\	.
8D/J	16aa\	.
.	16ddd\JJ)	.
*Xrep	*	*
=37	=37	=37
8CC#X/L	16r	.
.	16en/LL	.
8C#X/J	(16g/	.
.	16b-/JJ	.
!LO:SIC:o=:v:znak powtórzenia grupy	!	!
*rep	*	*
8CC#/L	16cc#X\LL	.
.	16een\	.
8C#/J	16bb-X\)	.
.	16ccc#X\JJ	.
*Xrep	*	*
=38	=38	=38
!	!LO:SIC:o=:v:2FF#	!
*	*2\right	*
2DD;/ 2FF/ 2AA/ 2D/	2dd;\ 2ff#X\ 2aa\ 2ddd\	.
==	==	==
*-	*-	*-
!!!system-decoration: {(s1,s2)}
!!!RDF**kern: > = above
!!!RDF**kern: < = below
!!!RDF**dynam: < = Cres
!!!EED: Leszek Kubiak
!!!EST: 2020-09-18
!!!ENC: Andrzej Borzym
!!!END: 2020-06-02
